public/assets/items/key-rose.svg

<svg width="240" height="240" viewBox="0 0 240 240" fill="none" xmlns="http://www.w3.org/2000/svg">
<g clip-path="url(#clip0)">
<g opacity="0.1" filter="url(#filter0_f)">
<rect x="83.7285" y="32.3037" width="168.504" height="61.5328" transform="rotate(45.5451 83.7285 32.3037)" fill="#61FFFF"/>
<rect x="83.7199" y="33.2076" width="167.226" height="60.2545" transform="rotate(45.5451 83.7199 33.2076)" stroke="black" stroke-width="1.27836"/>
</g>
<g filter="url(#filter1_d)">
<path fill-rule="evenodd" clip-rule="evenodd" d="M59.1876 90.4786C51.5359 98.1303 51.5359 110.536 59.1876 118.188C66.8393 125.84 79.2451 125.84 86.8968 118.188L96.141 108.944L99.5445 112.347L98.6016 113.29C97.8206 114.071 97.8206 115.337 98.6016 116.118C99.0109 116.528 99.5534 116.722 100.09 116.703L100.001 116.792C99.2195 117.573 99.2195 118.839 100.001 119.62C100.755 120.375 101.964 120.4 102.749 119.696C102.807 120.112 102.996 120.513 103.316 120.832C104.097 121.613 105.363 121.613 106.144 120.832L107.087 119.889L148.571 161.373L147.628 162.316C146.847 163.097 146.847 164.363 147.628 165.144C148.409 165.925 149.675 165.925 150.456 165.144L151.399 164.202L167.242 180.045C168.023 180.826 169.289 180.826 170.07 180.045C170.851 179.264 170.851 177.997 170.07 177.216L166.444 173.59C166.544 173.542 166.637 173.477 166.72 173.394L168.412 171.702C168.734 171.38 168.788 170.883 168.616 170.46C167.83 168.532 168.219 166.238 169.784 164.673C171.348 163.109 173.643 162.719 175.571 163.505C175.993 163.677 176.49 163.624 176.813 163.301L178.505 161.609C178.896 161.218 178.896 160.585 178.505 160.195L170.491 152.181C170.101 151.79 169.468 151.79 169.077 152.181L167.385 153.873C167.062 154.195 167.009 154.692 167.181 155.115C167.967 157.043 167.577 159.337 166.013 160.902C164.448 162.466 162.154 162.856 160.226 162.07C159.804 161.898 159.306 161.951 158.984 162.274L157.292 163.966C157.209 164.049 157.144 164.142 157.096 164.242L154.227 161.373L155.17 160.43C155.951 159.649 155.951 158.383 155.17 157.602C154.389 156.821 153.123 156.821 152.342 157.602L151.399 158.545L109.915 117.061L110.858 116.118C111.639 115.337 111.639 114.071 110.858 113.29C110.527 112.959 110.109 112.768 109.678 112.718C110.198 111.94 110.115 110.879 109.429 110.192C108.689 109.452 107.514 109.413 106.728 110.075C106.751 109.535 106.556 108.988 106.144 108.576C105.363 107.795 104.097 107.795 103.316 108.576L102.373 109.519L98.9695 106.115L107.271 97.8138C114.923 90.1621 114.923 77.7563 107.271 70.1046C99.6192 62.4529 87.2133 62.4529 79.5617 70.1046L59.1876 90.4786ZM84.4128 115.129C88.219 111.323 89.7449 106.115 88.9726 101.241C88.8509 100.473 89.5557 99.7684 90.3233 99.8901C95.197 100.662 100.406 99.1366 104.212 95.3304C110.46 89.082 110.563 79.0543 104.442 72.933C98.3206 66.8116 88.2929 66.9146 82.0445 73.163C78.2383 76.9692 76.7125 82.1778 77.4848 87.0515C77.6064 87.8191 76.9016 88.5238 76.1341 88.4022C71.2603 87.6298 66.0517 89.1557 62.2454 92.9619C55.997 99.2103 55.8941 109.238 62.0154 115.359C68.1368 121.481 78.1644 121.378 84.4128 115.129Z" fill="white"/>
</g>
</g>
<defs>
<filter id="filter0_f" x="-10.1934" y="-17.6963" width="261.934" height="263.373" filterUnits="userSpaceOnUse" color-interpolation-filters="sRGB">
<feFlood flood-opacity="0" result="BackgroundImageFix"/>
<feBlend mode="normal" in="SourceGraphic" in2="BackgroundImageFix" result="shape"/>
<feGaussianBlur stdDeviation="25" result="effect1_foregroundBlur"/>
</filter>
<filter id="filter1_d" x="30.333" y="41.25" width="178.308" height="178.308" filterUnits="userSpaceOnUse" color-interpolation-filters="sRGB">
<feFlood flood-opacity="0" result="BackgroundImageFix"/>
<feColorMatrix in="SourceAlpha" type="matrix" values="0 0 0 0 0 0 0 0 0 0 0 0 0 0 0 0 0 0 127 0"/>
<feOffset/>
<feGaussianBlur stdDeviation="7.5"/>
<feColorMatrix type="matrix" values="0 0 0 0 1 0 0 0 0 1 0 0 0 0 1 0 0 0 0.75 0"/>
<feBlend mode="normal" in2="BackgroundImageFix" result="effect1_dropShadow"/>
<feBlend mode="normal" in="SourceGraphic" in2="effect1_dropShadow" result="shape"/>
</filter>
<clipPath id="clip0">
<rect width="240" height="240" fill="white"/>
</clipPath>
</defs>
</svg>

<svg width="240" height="240" fill="none" xmlns="http://www.w3.org/2000/svg"><g clip-path="url(#clip0)"><g filter="url(#filter0_f)"><path fill-rule="evenodd" clip-rule="evenodd" d="M59.188 90.479c-7.652 7.651-7.652 20.057 0 27.709 7.651 7.652 20.057 7.652 27.709 0l9.244-9.244 3.403 3.403-.942.943a2 2 0 0 0 1.488 3.413l-.089.089a1.999 1.999 0 0 0 2.748 2.904 2 2 0 0 0 3.395 1.136l.943-.943 41.484 41.484-.943.943a2 2 0 1 0 2.828 2.828l.943-.942 15.843 15.843a2 2 0 1 0 2.828-2.829l-3.626-3.626c.1-.048.193-.113.276-.196l1.692-1.692c.322-.322.376-.819.204-1.242a5.334 5.334 0 0 1 6.955-6.955c.422.172.919.119 1.242-.204l1.692-1.692a.999.999 0 0 0 0-1.414l-8.014-8.014a.999.999 0 0 0-1.414 0l-1.692 1.692c-.323.322-.376.819-.204 1.242a5.336 5.336 0 0 1-6.955 6.955c-.422-.172-.92-.119-1.242.204l-1.692 1.692a1.002 1.002 0 0 0-.196.276l-2.869-2.869.943-.943a2 2 0 1 0-2.828-2.828l-.943.943-41.484-41.484.943-.943a2 2 0 0 0-1.18-3.4 2 2 0 0 0-2.95-2.643 2 2 0 0 0-3.412-1.499l-.943.943-3.404-3.404 8.302-8.301c7.652-7.652 7.652-20.058 0-27.71-7.652-7.651-20.058-7.651-27.71 0L59.189 90.48zm25.225 24.65c3.806-3.806 5.332-9.014 4.56-13.888-.122-.768.583-1.473 1.35-1.35 4.874.771 10.083-.754 13.889-4.56 6.248-6.249 6.351-16.277.23-22.398-6.121-6.121-16.15-6.018-22.397.23-3.807 3.806-5.332 9.015-4.56 13.889.121.767-.583 1.472-1.35 1.35-4.875-.772-10.083.754-13.89 4.56-6.248 6.248-6.35 16.276-.23 22.397 6.122 6.122 16.15 6.019 22.398-.23z" fill="#fff"/></g><path fill-rule="evenodd" clip-rule="evenodd" d="M59.188 90.479c-7.652 7.651-7.652 20.057 0 27.709 7.651 7.652 20.057 7.652 27.709 0l9.244-9.244 3.403 3.403-.942.943a2 2 0 0 0 1.488 3.413l-.089.089a1.999 1.999 0 0 0 2.748 2.904 2 2 0 0 0 3.395 1.136l.943-.943 41.484 41.484-.943.943a2 2 0 1 0 2.828 2.828l.943-.942 15.843 15.843a2 2 0 1 0 2.828-2.829l-3.626-3.626c.1-.048.193-.113.276-.196l1.692-1.692c.322-.322.376-.819.204-1.242a5.334 5.334 0 0 1 6.955-6.955c.422.172.919.119 1.242-.204l1.692-1.692a.999.999 0 0 0 0-1.414l-8.014-8.014a.999.999 0 0 0-1.414 0l-1.692 1.692c-.323.322-.376.819-.204 1.242a5.336 5.336 0 0 1-6.955 6.955c-.422-.172-.92-.119-1.242.204l-1.692 1.692a1.002 1.002 0 0 0-.196.276l-2.869-2.869.943-.943a2 2 0 1 0-2.828-2.828l-.943.943-41.484-41.484.943-.943a2 2 0 0 0-1.18-3.4 2 2 0 0 0-2.95-2.643 2 2 0 0 0-3.412-1.499l-.943.943-3.404-3.404 8.302-8.301c7.652-7.652 7.652-20.058 0-27.71-7.652-7.651-20.058-7.651-27.71 0L59.189 90.48zm25.225 24.65c3.806-3.806 5.332-9.014 4.56-13.888-.122-.768.583-1.473 1.35-1.35 4.874.771 10.083-.754 13.889-4.56 6.248-6.249 6.351-16.277.23-22.398-6.121-6.121-16.15-6.018-22.397.23-3.807 3.806-5.332 9.015-4.56 13.889.121.767-.583 1.472-1.35 1.35-4.875-.772-10.083.754-13.89 4.56-6.248 6.248-6.35 16.276-.23 22.397 6.122 6.122 16.15 6.019 22.398-.23z" fill="#fff"/></g><defs><filter id="filter0_f" x="-15" y="-4" width="270" height="270" filterUnits="userSpaceOnUse" color-interpolation-filters="sRGB"><feFlood flood-opacity="0" result="BackgroundImageFix"/><feBlend in="SourceGraphic" in2="BackgroundImageFix" result="shape"/><feGaussianBlur stdDeviation="7.5" result="effect1_foregroundBlur"/></filter><clipPath id="clip0"><path fill="#fff" d="M0 0h240v240H0z"/></clipPath></defs></svg>
